<?xml version="1.0" encoding="UTF-8"?>
<map version="1.10" tiledversion="1.12.1" orientation="orthogonal" renderorder="right-down" width="60" height="34" tilewidth="16" tileheight="16" infinite="0" nextlayerid="6" nextobjectid="77">
 <tileset firstgid="1" source="imagens/tiles.tsx"/>
 <tileset firstgid="351" source="imagens/tileset_water.tsx"/>
 <layer id="2" name="camada 1" width="60" height="34">
  <data encoding="csv">
219,220,219,220,219,220,219,220,219,220,219,220,219,220,219,220,219,220,219,220,219,220,219,220,219,220,219,220,219,219,219,220,219,219,220,244,244,219,220,219,244,219,219,220,219,219,220,244,219,219,244,219,219,219,220,219,220,219,219,220,
244,245,244,245,244,245,244,245,244,245,244,245,244,245,244,245,244,245,244,245,244,245,244,245,244,245,244,245,244,244,219,220,244,219,220,244,245,219,220,219,244,219,219,220,219,219,220,244,219,244,245,219,219,219,220,219,220,219,219,220,
219,220,219,220,219,220,219,220,219,220,219,220,219,220,219,220,219,220,219,220,219,220,219,220,219,220,219,220,219,244,219,220,220,219,220,244,245,244,219,219,244,219,219,220,219,219,220,244,219,244,245,244,219,219,220,219,220,219,244,245,
244,245,244,245,244,245,244,245,244,245,244,245,244,245,244,245,244,245,244,219,220,245,244,245,219,220,244,245,244,245,219,220,220,219,220,244,245,245,219,219,244,219,219,220,219,219,220,244,219,244,245,220,219,219,220,219,220,219,244,245,
219,220,219,220,219,220,219,220,219,220,219,220,219,220,219,220,219,220,219,219,220,220,219,220,219,220,219,220,219,220,219,220,220,219,219,244,245,245,219,244,245,219,220,245,219,219,220,244,219,244,245,245,219,219,220,219,220,219,244,245,
244,245,244,245,244,245,244,245,244,245,244,245,244,245,244,245,244,245,244,219,220,220,244,245,244,245,244,245,244,245,219,220,220,219,244,245,244,245,244,244,245,219,219,220,219,219,220,244,244,244,245,245,219,219,220,220,245,219,244,245,
219,220,219,220,219,220,219,220,219,220,219,220,219,220,219,220,219,220,219,244,245,220,219,220,219,220,219,220,219,220,219,220,220,244,244,245,244,245,219,244,219,219,219,220,219,220,245,244,245,244,245,245,219,220,245,220,245,219,220,220,
244,245,244,245,244,245,244,245,244,245,244,245,244,245,244,245,244,245,244,244,244,245,244,245,244,245,244,245,244,245,244,219,220,245,244,245,244,245,219,219,219,219,219,220,219,219,219,244,245,244,245,219,219,220,245,220,245,219,220,220,
219,220,219,220,219,220,219,220,219,220,219,220,219,220,219,220,219,220,219,220,219,220,219,220,219,220,219,220,219,220,244,219,220,245,244,245,244,245,220,219,219,219,219,220,219,219,244,245,220,244,245,244,219,220,219,220,245,220,245,245,
244,245,244,245,244,245,244,245,244,245,244,245,244,245,244,245,244,245,244,245,244,245,244,245,244,245,244,245,244,245,244,219,220,245,244,245,244,245,220,219,244,219,219,220,220,219,244,245,245,219,219,244,219,220,219,220,245,220,244,245,
219,220,219,220,219,220,219,220,219,220,219,220,219,220,219,220,219,220,219,220,219,220,219,220,219,220,219,220,219,220,219,219,219,220,244,245,220,245,220,219,244,219,219,220,220,219,244,245,245,219,244,245,219,220,219,220,245,220,244,245,
244,245,244,245,244,245,244,245,244,245,244,245,244,245,244,245,244,245,244,245,244,245,244,245,244,245,244,245,244,245,219,244,219,220,220,244,245,219,219,219,244,244,219,220,220,244,245,220,245,220,244,245,219,220,219,220,245,220,244,245,
219,220,219,220,219,220,219,220,219,220,219,220,219,220,219,220,219,220,219,220,219,220,219,220,219,220,219,220,219,219,244,244,219,220,245,244,245,220,219,219,244,245,219,220,220,244,245,220,244,245,245,220,219,220,219,220,245,220,244,245,
244,245,244,245,244,245,244,245,244,245,244,245,244,245,244,245,244,245,244,245,244,245,244,245,244,245,244,245,244,244,244,245,219,220,220,244,245,220,219,219,244,219,220,245,245,244,245,220,244,245,245,220,219,220,219,220,245,220,244,245,
219,220,219,220,219,220,219,220,219,220,219,220,219,220,219,220,219,220,219,220,219,220,219,220,219,220,219,220,219,244,245,219,244,219,220,244,244,245,219,219,244,219,220,220,244,244,245,245,244,245,220,219,220,245,219,220,245,220,244,245,
244,245,244,245,244,245,244,245,244,245,244,245,244,245,244,245,244,245,244,245,244,245,244,245,244,245,244,245,244,244,245,219,219,219,220,244,244,245,219,244,245,219,220,245,244,244,245,219,244,244,245,219,220,245,220,245,220,245,244,245,
219,220,219,220,219,220,219,220,219,220,219,220,219,220,219,220,219,220,219,220,219,220,219,220,219,220,219,220,219,244,245,244,219,219,220,244,244,245,220,244,245,219,220,244,219,244,245,244,245,244,245,219,220,245,220,245,220,220,244,245,
244,245,244,245,244,245,244,245,244,245,244,245,244,245,244,245,244,245,244,245,244,245,244,245,244,245,244,245,244,244,245,220,219,219,220,244,245,244,245,220,220,219,220,244,219,244,245,245,245,244,245,219,220,245,220,245,220,220,244,245,
219,220,219,220,219,220,219,220,219,220,219,220,219,220,219,220,219,220,219,220,219,220,219,220,219,220,219,220,219,244,245,245,219,244,219,220,245,244,245,245,219,220,245,244,219,244,245,245,245,244,245,219,220,245,220,245,245,220,244,245,
244,219,219,219,220,245,244,245,244,245,244,245,244,245,244,245,244,245,244,245,244,245,244,245,244,245,244,245,244,245,244,245,220,220,219,220,220,244,245,219,219,220,244,219,219,244,245,244,245,220,244,219,220,245,220,245,219,220,244,245,
219,244,219,219,219,219,219,219,219,219,219,219,219,219,219,219,219,219,219,219,219,219,219,219,219,219,219,219,219,220,244,245,220,245,244,219,219,244,219,220,219,220,244,219,219,244,245,244,245,220,244,219,220,245,245,245,219,220,244,245,
244,244,244,244,244,244,244,244,244,244,244,219,220,220,220,220,220,220,244,244,244,244,244,244,244,244,219,220,220,220,244,245,220,220,244,244,244,245,219,220,219,220,219,220,219,244,245,244,245,245,244,219,220,219,220,245,219,219,220,220,
219,219,219,219,219,220,220,220,220,220,220,219,220,245,245,245,245,245,220,220,220,220,220,220,220,220,220,219,219,219,219,244,245,245,244,245,244,245,219,220,219,219,220,219,219,244,245,244,245,245,244,219,220,219,220,245,219,219,219,220,
244,244,244,244,244,219,220,220,245,245,219,220,220,219,219,220,220,220,245,219,219,219,219,220,245,219,219,244,244,219,220,219,219,220,244,245,244,245,219,220,219,220,245,244,244,244,245,244,245,245,245,219,220,219,220,219,219,244,244,245,
245,219,220,219,219,220,245,245,219,219,219,219,219,244,244,219,219,219,219,244,219,220,220,219,219,244,244,245,219,220,219,219,219,220,245,219,244,245,219,220,220,220,244,245,245,244,245,219,220,245,245,219,220,219,220,219,219,220,244,245,
245,219,219,219,220,245,219,220,219,244,244,244,244,244,245,244,244,219,220,220,220,219,219,244,244,245,220,219,220,245,219,219,220,245,245,219,244,245,244,245,245,245,244,245,245,244,245,244,245,245,219,219,220,219,220,219,219,220,219,220,
245,219,219,219,219,219,219,219,244,245,219,219,244,245,220,244,219,219,219,220,219,244,244,245,245,219,220,219,219,220,244,219,220,244,245,219,244,219,219,219,220,244,245,244,245,244,245,244,245,245,244,219,220,219,219,219,220,245,219,220,
245,244,244,244,244,244,244,244,244,244,244,244,244,245,219,220,219,219,219,219,244,245,220,219,220,220,219,219,220,245,244,219,220,244,219,244,245,219,244,219,219,244,245,244,245,220,244,244,245,245,244,219,220,219,244,219,220,219,219,220,
244,244,245,220,220,220,220,220,219,220,220,220,220,219,219,219,219,219,244,244,245,220,220,219,219,219,219,220,245,219,219,244,245,244,219,244,245,244,244,219,244,245,220,244,245,220,244,244,245,245,244,219,219,219,244,219,220,244,219,220,
220,244,245,245,245,245,245,245,219,220,245,220,220,220,219,219,219,244,245,220,245,219,219,244,219,244,219,219,219,219,220,219,244,219,219,244,245,219,244,219,244,245,219,244,245,220,244,244,245,244,244,219,244,219,244,219,220,244,219,220,
219,220,244,245,220,219,219,244,219,219,219,220,245,219,219,219,244,245,220,219,219,244,244,219,244,219,220,244,219,220,219,244,219,220,244,245,219,244,245,244,244,245,244,244,245,220,244,244,219,220,244,219,244,244,244,219,219,244,219,220,
219,219,244,245,245,244,244,245,244,244,219,220,219,219,219,219,244,245,245,244,244,245,219,244,219,220,219,244,219,220,244,245,219,219,244,245,219,244,245,220,244,245,244,244,245,220,244,244,219,219,244,219,244,245,245,219,244,245,219,220,
219,219,219,219,219,244,245,219,244,219,220,220,244,244,244,244,245,245,245,244,245,219,244,245,219,219,244,219,220,219,244,219,219,244,244,245,219,244,245,245,244,245,244,245,219,220,244,245,244,244,245,219,244,245,245,219,244,245,244,219,
244,244,244,244,244,244,244,244,244,244,219,219,244,244,244,244,244,245,245,245,219,244,245,219,219,244,245,219,219,244,245,244,219,219,244,245,219,244,245,244,244,245,244,245,244,219,244,245,244,244,245,219,244,245,245,219,244,245,244,219
</data>
 </layer>
 <layer id="3" name="camada 2" width="60" height="34">
  <data encoding="csv">
0,0,0,0,0,0,0,0,0,0,0,0,27,28,29,30,31,32,0,0,0,0,0,0,0,0,0,0,0,0,0,248,248,0,0,0,0,0,0,0,0,59,60,61,62,0,0,0,214,0,219,244,244,244,244,244,244,244,245,220,
0,0,0,0,0,0,0,0,0,0,0,0,52,53,54,55,56,57,0,0,0,0,0,0,0,0,0,0,0,0,0,248,248,0,0,0,0,0,0,0,0,84,85,86,87,0,0,0,214,0,244,245,64,65,66,67,68,69,219,220,
0,0,0,0,0,0,0,0,0,0,0,0,77,78,79,80,81,82,0,0,0,0,0,0,304,0,0,0,0,0,0,248,248,0,0,0,0,0,0,0,0,109,110,111,112,0,0,0,214,219,244,245,89,90,91,92,93,94,219,220,
0,0,0,304,0,0,0,0,302,0,0,0,102,103,104,105,106,107,219,219,220,220,0,0,0,0,0,0,0,0,0,248,248,219,220,0,0,0,0,0,0,134,135,136,137,0,0,0,214,244,244,245,114,115,116,117,118,119,219,220,
0,219,220,219,220,0,0,0,0,0,0,0,127,128,129,130,131,132,244,219,220,220,0,0,0,0,0,0,0,0,0,248,248,244,245,0,0,0,0,0,0,0,248,248,0,0,0,0,214,244,245,220,139,140,141,142,143,144,219,220,
0,219,220,244,245,220,0,0,0,0,0,0,0,305,0,0,305,0,219,219,219,219,220,0,0,0,0,0,304,0,0,248,248,0,0,0,0,0,0,0,0,0,248,248,0,0,0,0,214,244,245,245,220,220,220,220,220,220,220,245,
0,219,219,244,245,245,0,0,0,0,0,0,0,0,219,219,220,0,219,244,244,219,220,0,0,0,0,0,0,0,0,248,248,0,219,220,0,0,0,0,0,0,248,248,0,0,0,0,214,244,305,245,245,245,245,245,245,245,245,0,
0,244,244,59,60,61,62,0,46,47,48,49,214,0,244,244,245,0,244,244,245,244,245,0,0,0,0,0,0,0,0,248,248,248,248,248,248,248,248,248,248,248,248,248,220,0,0,0,214,0,0,0,0,0,0,0,0,0,305,0,
0,0,0,84,85,86,87,0,71,72,73,74,214,233,233,233,233,214,0,0,0,0,0,0,0,46,47,48,49,0,0,248,248,248,248,248,248,248,248,248,248,248,248,248,245,0,0,219,214,219,220,0,305,0,0,0,0,0,0,0,
0,0,0,109,110,111,112,0,96,97,98,99,214,233,233,233,233,214,0,0,0,0,0,0,0,71,72,73,74,0,0,0,0,244,245,244,245,244,245,0,0,219,220,220,220,0,0,244,214,244,245,0,0,0,219,220,305,0,0,0,
0,302,0,134,135,136,137,0,121,122,123,124,216,234,234,234,234,216,0,0,302,0,0,0,0,96,97,98,99,0,0,0,0,0,219,220,219,220,0,0,0,244,245,245,245,0,0,219,239,240,240,240,240,187,244,245,240,240,240,241,
0,0,0,0,0,0,0,0,146,147,148,149,216,234,234,234,234,216,0,0,0,0,0,0,0,121,122,123,124,0,0,0,0,0,244,245,244,245,0,0,0,0,0,0,0,0,0,244,245,244,245,0,0,212,0,219,220,244,245,0,
0,0,0,214,233,233,214,0,0,0,0,0,216,234,234,234,234,216,0,0,0,0,0,187,0,146,147,148,149,0,0,0,0,0,219,219,220,219,220,0,0,0,0,0,0,0,0,0,0,0,0,0,0,0,0,244,245,0,0,0,
219,219,219,214,233,233,239,240,240,240,240,240,241,234,234,234,234,216,0,0,0,0,0,212,0,0,0,0,0,0,0,0,0,0,244,244,245,244,245,0,0,0,219,219,219,220,219,219,220,219,220,220,0,0,0,0,0,0,0,0,
219,244,244,214,233,233,233,233,233,233,233,233,229,234,234,234,234,216,0,0,0,0,0,0,46,47,48,49,302,0,0,0,0,0,0,0,0,0,0,0,0,0,244,244,244,245,244,244,245,244,592,592,592,592,592,592,592,592,592,592,
244,244,245,214,233,233,233,233,233,233,233,233,233,234,234,234,234,216,0,304,0,0,0,0,71,72,73,74,0,0,0,0,0,0,0,0,0,0,0,0,0,0,244,245,219,220,220,592,592,592,592,592,592,592,592,592,592,592,592,592,
0,0,0,239,240,240,240,240,240,240,240,240,241,234,234,234,234,216,0,0,0,0,0,0,96,97,98,99,0,0,0,0,0,0,219,219,219,220,0,0,0,0,219,220,219,219,592,592,592,592,531,532,532,532,532,532,532,532,532,532,
0,304,0,244,305,244,245,304,0,0,305,0,216,234,234,234,234,216,0,0,0,302,0,0,121,122,123,124,0,0,0,0,0,0,244,244,244,245,0,0,0,0,244,245,244,592,592,592,531,532,608,367,367,367,367,367,367,367,367,367,
0,0,0,0,0,0,305,245,302,0,304,0,216,234,234,234,234,216,0,0,0,0,0,0,146,147,148,149,0,0,0,0,0,592,592,592,592,592,592,592,592,592,592,592,592,592,531,532,608,367,367,367,367,367,367,367,576,562,562,562,
0,0,0,0,239,240,240,240,240,240,240,240,241,234,234,234,234,216,0,0,0,0,0,0,0,0,0,0,0,0,0,0,0,592,592,592,592,592,592,592,592,592,592,592,592,592,546,367,367,367,576,562,562,59,60,61,62,592,592,592,
0,0,0,0,216,233,234,234,233,234,233,234,234,233,234,233,234,216,0,0,0,0,0,0,0,0,0,0,0,0,0,0,592,592,592,592,592,592,592,592,592,592,592,592,592,592,546,367,367,367,548,592,592,84,85,86,87,592,592,592,
0,0,0,0,216,233,234,234,233,234,234,233,234,233,234,233,234,216,0,0,0,0,0,0,0,0,0,257,258,259,260,0,592,592,592,592,592,592,592,592,592,592,592,592,592,592,546,367,367,367,548,592,592,109,110,111,112,592,592,592,
0,0,0,0,216,233,234,234,234,189,240,240,240,240,240,240,240,241,0,0,0,0,0,0,0,0,0,282,283,284,285,0,592,592,592,592,592,592,592,592,592,592,592,592,592,592,546,367,367,367,548,592,592,134,135,136,137,592,592,592,
0,0,0,0,216,233,233,234,234,216,0,0,0,0,0,0,0,0,257,258,259,260,0,0,0,0,0,0,0,0,0,0,592,592,592,592,592,592,592,592,592,592,592,592,592,592,546,367,367,367,548,592,592,592,592,592,592,592,592,592,
0,0,0,0,216,233,234,234,234,216,0,0,0,0,0,0,0,0,282,283,284,285,0,0,0,0,0,0,0,0,0,592,592,592,592,592,592,592,592,592,592,592,592,592,592,531,608,367,367,367,548,592,592,592,592,592,592,592,592,592,
0,0,0,0,216,233,234,233,234,216,0,179,180,181,182,0,0,0,0,0,0,0,0,0,0,0,0,0,219,220,219,592,592,592,592,592,592,592,531,532,532,532,532,532,532,608,367,367,367,367,606,532,533,592,592,592,592,592,592,592,
0,0,0,0,216,233,234,233,234,216,0,0,0,0,0,0,0,0,0,0,0,0,0,0,219,220,220,220,219,220,219,592,592,592,592,592,592,592,546,367,367,367,367,367,367,367,367,367,367,367,367,367,591,592,592,592,592,592,592,592,
0,0,0,0,216,233,233,233,234,216,0,0,0,0,0,0,0,0,0,0,0,0,0,0,219,219,219,220,219,220,592,592,592,592,592,592,592,592,546,367,367,367,367,367,367,367,367,367,367,367,367,367,548,592,592,592,592,592,592,592,
0,0,0,0,216,233,234,233,234,216,0,0,0,0,0,0,0,0,0,59,60,61,62,0,219,244,219,220,219,220,592,592,592,592,592,592,592,592,546,367,367,367,367,367,367,367,367,367,367,367,367,367,548,592,592,592,592,592,592,592,
0,0,0,0,216,233,233,233,234,216,0,257,258,259,260,0,0,0,0,84,85,86,87,0,219,244,219,220,219,592,592,592,592,592,592,592,592,592,546,367,367,367,367,367,367,367,367,367,367,367,367,367,548,592,592,592,592,592,592,592,
0,0,0,0,216,233,233,233,234,216,0,282,283,284,285,0,0,0,0,109,110,111,112,0,244,244,219,219,244,592,592,592,592,592,592,592,592,592,546,367,367,367,367,367,367,367,367,367,367,367,367,367,548,592,592,592,592,592,592,592,
0,0,0,0,289,0,0,0,219,289,220,0,0,0,0,0,0,0,0,134,135,136,137,0,0,244,244,219,592,592,592,592,592,592,592,592,592,592,546,367,367,367,367,367,367,367,367,367,367,367,367,367,548,592,592,592,592,592,592,592,
0,0,0,0,0,0,0,0,244,244,245,0,0,0,0,0,0,0,0,0,0,0,0,0,0,244,219,592,592,592,592,592,592,592,592,592,592,592,546,547,367,367,367,367,367,367,367,367,367,367,367,367,548,592,592,592,592,592,592,592,
0,0,0,0,0,0,0,0,244,245,0,0,0,0,0,0,0,0,0,0,0,0,0,0,0,0,244,592,592,592,592,592,592,592,592,592,592,592,546,547,367,367,367,367,367,367,367,367,367,367,367,547,548,592,592,592,592,592,592,592
</data>
 </layer>
 <objectgroup id="4" name="colisoes">
  <object id="4" name="wall" x="195.984" y="128.15" width="8.19545" height="95.9704"/>
  <object id="5" name="wall" x="99.5145" y="209.268" width="104.369" height="14.2388"/>
  <object id="6" name="wall" x="99.6285" y="191.759" width="9.32971" height="17.0502"/>
  <object id="8" name="wall" x="50.4832" y="191.577" width="9.40032" height="65.528"/>
  <object id="9" name="wall" x="50.0517" y="257.162" width="145.389" height="13.0574"/>
  <object id="10" name="wall" x="195.642" y="257.073" width="8.74256" height="61.5807"/>
  <object id="11" name="wall" x="274.421" y="129.013" width="11.2185" height="190.714"/>
  <object id="12" name="wall" type="wall" x="192.44" y="1.72592" width="95.3571" height="77.2349"/>
  <object id="13" name="wall" x="48.7572" y="112.616" width="64.2905" height="62.5646"/>
  <object id="15" name="wall" x="136.779" y="156.196" width="47.4628" height="22.437"/>
  <object id="19" name="wall" x="150.587" y="176.475" width="17.2592" height="14.6703"/>
  <object id="22" name="wall" x="407.749" y="175.612" width="49.1887" height="19.8481"/>
  <object id="23" name="wall" x="425.008" y="192.009" width="13.8074" height="15.5333"/>
  <object id="24" name="wall" x="391.352" y="271.832" width="49.6202" height="20.711"/>
  <object id="25" name="wall" x="409.475" y="288.66" width="13.3759" height="14.2388"/>
  <object id="26" name="wall" x="849.333" y="304" width="62" height="63.3333"/>
  <object id="27" name="wall" x="68.5" y="305.5" width="127" height="13.75"/>
  <object id="28" name="wall" x="148.25" y="352" width="136.5" height="16.25"/>
  <object id="29" name="wall" x="274.25" y="316" width="11.25" height="35.5"/>
  <object id="30" name="wall" x="147.75" y="368.75" width="9" height="127.5"/>
  <object id="31" name="wall" x="144" y="496.25" width="15.75" height="15.5"/>
  <object id="32" name="wall" x="67.5" y="319.5" width="10" height="175.5"/>
  <object id="33" name="wall" x="64.5" y="496" width="14.5" height="15"/>
  <object id="34" name="wall" x="304.5" y="448" width="63.5" height="62"/>
  <object id="36" name="wall" x="656.5" y="0.5" width="62.5" height="62.75"/>
  <object id="38" name="wall" x="834" y="19.5" width="91.5" height="58.5"/>
  <object id="48" name="wall" x="611.333" y="406" width="233.333" height="136.667"/>
  <object id="49" name="wall" x="724.75" y="397.75" width="25.25" height="7.5"/>
  <object id="52" name="wall" x="744.25" y="301.75" width="7" height="96.5"/>
  <object id="53" name="wall" x="733.727" y="392.091" width="10.4545" height="5.54545"/>
  <object id="54" name="wall" x="741.273" y="383.727" width="2.63636" height="7.90909"/>
  <object id="56" name="wall" x="729.531" y="394.688" width="4.09375" height="2.84375"/>
  <object id="57" name="wall" x="737.304" y="389.913" width="3.82609" height="1.91304"/>
  <object id="58" name="wall" x="739.087" y="385.391" width="2" height="4.26087"/>
  <object id="61" name="wall" x="799.25" y="399.25" width="13.5" height="7"/>
  <object id="62" name="wall" x="752.25" y="296.5" width="46.75" height="109.5"/>
  <object id="63" name="wall" x="771" y="288.5" width="28.25" height="7.25"/>
  <object id="64" name="wall" x="780.5" y="281" width="19" height="6.25"/>
  <object id="66" name="wall" x="777.625" y="283.75" width="2.375" height="3.625"/>
  <object id="67" name="wall" x="774.625" y="286.25" width="3.25" height="1.5"/>
  <object id="68" name="wall" x="815.75" y="265.25" width="143.932" height="31.25"/>
  <object id="70" name="wall" x="800.364" y="279.455" width="14.7273" height="16.5455"/>
  <object id="71" name="wall" x="809.818" y="267.273" width="5.27273" height="12"/>
  <object id="72" name="wall" x="804" y="271.818" width="5.09091" height="7.45455"/>
  <object id="73" name="wall" x="799.636" y="296.182" width="48.5455" height="16"/>
  <object id="74" name="wall" x="848.545" y="296.727" width="59.2727" height="7.09091"/>
  <object id="75" name="wall" x="799.273" y="312.364" width="8.54545" height="86.3636"/>
  <object id="76" name="wall" x="808.182" y="312.545" width="4.54545" height="4.36364"/>
 </objectgroup>
 <objectgroup id="5" name="portas">
  <object id="45" name="door" x="223.333" y="62.3333" width="33" height="27.1515"/>
 </objectgroup>
</map>
