<?xml version="1.0" encoding="UTF-8"?>
<map version="1.10" tiledversion="1.12.1" orientation="orthogonal" renderorder="right-down" width="64" height="64" tilewidth="16" tileheight="16" infinite="0" nextlayerid="4" nextobjectid="1">
 <tileset firstgid="1" source="imagens/tileset_basic_terrain.tsx"/>
 <tileset firstgid="529" source="imagens/tileset_other.tsx"/>
 <tileset firstgid="1265" source="imagens/tileset_water.tsx"/>
 <tileset firstgid="2180" source="imagens/tiles.tsx"/>
 <layer id="1" name="erva" width="64" height="64">
  <data encoding="csv">
73,74,73,74,73,74,73,74,73,74,73,74,73,74,73,74,73,74,73,74,73,74,73,74,73,74,73,74,73,74,73,74,73,74,73,74,73,74,73,74,73,74,73,74,73,74,73,74,73,74,73,74,73,74,73,74,73,74,73,74,73,74,73,74,
85,86,85,86,85,86,85,86,85,86,85,86,85,86,85,86,85,86,85,86,85,86,85,86,85,86,85,86,85,86,85,86,85,86,85,86,85,86,85,86,85,86,85,86,85,86,85,86,85,86,85,86,85,86,85,86,85,86,85,86,85,86,85,86,
73,74,73,74,73,74,73,74,73,74,73,74,73,74,73,74,73,74,73,74,73,74,73,74,73,74,73,74,73,74,73,74,73,74,73,74,73,74,73,74,73,74,73,74,73,74,73,74,73,74,73,74,73,74,73,74,73,74,73,74,73,74,73,74,
85,86,85,86,85,86,85,86,85,86,85,86,85,86,85,86,85,86,85,86,85,86,85,86,85,86,85,86,85,86,85,86,85,86,85,86,85,86,85,86,85,86,85,86,85,86,85,86,85,86,85,86,85,86,85,86,85,86,85,86,85,86,85,86,
73,74,73,74,73,74,73,74,73,74,73,74,73,74,73,74,73,74,73,74,73,74,73,74,73,74,73,74,73,74,73,74,73,74,73,74,73,74,73,74,73,74,73,74,73,74,73,74,73,74,73,74,73,74,73,74,73,74,73,74,73,74,73,74,
85,86,85,86,85,86,85,86,85,86,85,86,85,86,85,86,85,86,85,86,85,86,85,86,85,86,85,86,85,86,85,86,85,86,85,86,85,86,85,86,85,86,85,86,85,86,85,86,85,86,85,86,85,86,85,86,85,86,85,86,85,86,85,86,
73,74,73,74,73,74,73,74,73,74,73,74,73,74,73,74,73,74,73,74,73,74,73,74,73,74,73,74,73,74,73,74,73,74,73,74,73,74,73,74,73,74,73,74,73,74,73,74,73,74,73,74,73,74,73,74,73,74,73,74,73,74,73,74,
85,86,85,86,85,86,73,74,85,86,85,86,85,86,85,86,85,86,85,86,85,86,85,86,85,86,85,86,85,86,85,86,85,86,85,86,85,86,85,86,85,86,85,86,85,86,85,86,85,86,85,86,85,86,85,86,85,86,85,86,85,86,85,86,
73,74,73,74,73,74,85,73,74,74,73,74,73,74,73,74,73,74,73,74,73,74,73,74,73,74,73,74,73,74,73,74,73,74,73,74,73,74,73,74,73,74,73,74,73,74,73,74,73,74,73,74,73,74,73,74,73,74,73,74,73,74,73,74,
85,86,85,86,85,86,85,73,73,74,85,86,85,86,85,86,85,86,85,86,85,86,85,86,85,86,85,86,85,86,85,86,85,86,85,86,85,86,85,86,85,86,85,86,85,86,85,86,85,86,85,86,85,86,85,86,85,86,85,86,85,86,85,86,
73,74,73,74,73,74,73,85,73,74,73,74,73,74,73,74,73,74,73,74,73,74,73,74,73,74,73,74,73,74,73,74,73,74,73,74,73,74,73,74,73,74,73,74,73,74,73,74,73,74,73,74,73,74,73,74,73,74,73,74,73,74,73,74,
85,86,85,86,85,86,85,86,73,74,85,86,85,86,85,86,85,86,85,86,85,86,85,86,85,86,85,86,85,86,85,86,85,86,85,86,85,86,85,86,85,86,85,86,85,86,85,86,85,86,85,86,85,86,85,86,85,86,85,86,85,86,85,86,
73,74,73,74,73,74,73,74,73,74,73,74,73,74,73,74,73,74,73,74,73,74,73,74,73,74,73,74,73,74,73,74,73,74,73,74,73,74,73,74,73,74,73,74,73,74,73,74,73,74,73,74,73,74,73,74,73,74,73,74,73,74,73,74,
85,86,85,86,85,86,85,86,85,73,74,86,85,86,85,86,85,86,85,86,85,86,85,86,85,86,85,86,85,86,85,86,85,86,85,86,85,86,85,86,85,86,85,86,85,86,85,86,85,86,85,86,85,86,85,86,85,86,85,86,85,86,85,86,
73,74,73,74,73,74,73,74,73,73,74,74,73,74,73,74,73,74,73,74,73,74,73,74,73,74,73,74,73,74,73,74,73,74,73,74,73,74,73,74,73,74,73,74,73,74,73,74,73,74,73,74,73,74,73,74,73,74,73,74,73,74,73,74,
85,86,85,86,85,86,85,86,85,73,74,86,85,86,85,86,85,86,85,86,85,86,85,86,85,86,85,86,85,86,85,86,85,86,85,86,85,86,85,86,85,86,85,86,85,86,85,86,85,86,85,86,85,86,85,86,85,86,85,86,85,86,85,86,
73,74,73,74,73,74,73,74,73,73,73,74,73,74,73,74,73,74,73,74,73,74,73,74,73,74,73,74,73,74,73,74,73,74,73,74,73,74,73,74,73,74,73,74,73,74,73,74,73,74,73,74,73,74,73,74,73,74,73,74,73,74,73,74,
85,86,85,86,85,86,85,86,85,85,73,74,85,86,85,86,85,86,85,86,85,86,85,86,85,86,85,86,85,86,85,86,85,86,85,86,85,86,85,86,85,86,85,86,85,86,85,86,85,86,85,86,85,86,85,86,85,86,85,86,85,86,85,86,
73,74,73,74,73,74,73,74,73,74,73,73,74,74,73,74,73,74,73,74,73,74,73,74,73,74,73,74,73,74,73,74,73,74,73,74,73,74,73,74,73,74,73,74,73,74,73,74,73,74,73,74,73,74,73,74,73,74,73,74,73,74,73,74,
85,86,85,86,85,86,85,86,85,86,85,73,74,86,85,86,85,86,85,86,85,86,85,86,85,86,85,86,85,86,85,86,85,86,85,86,85,86,85,86,85,86,85,86,85,86,85,86,85,86,85,86,85,86,85,86,85,86,85,86,85,86,85,86,
73,74,73,74,73,74,73,74,73,74,73,85,73,73,74,74,73,74,73,74,73,74,73,74,73,74,73,74,73,74,73,74,73,74,73,74,73,74,73,74,73,74,73,74,73,74,73,74,73,74,73,74,73,74,73,74,73,74,73,74,73,74,73,74,
85,86,85,86,85,86,85,86,85,86,85,86,85,73,73,73,74,73,73,73,74,86,85,86,85,86,85,86,85,86,85,86,85,86,85,86,85,86,85,86,85,86,85,86,85,86,85,86,85,86,85,86,85,86,85,86,85,86,85,86,85,86,85,86,
73,74,73,74,73,74,73,74,73,74,73,74,73,85,85,73,73,85,73,74,74,74,73,74,73,74,73,74,73,74,73,74,73,74,73,74,73,74,73,74,73,74,73,74,73,74,73,74,73,74,73,74,73,74,73,74,73,74,73,74,73,74,73,74,
85,86,85,86,85,86,85,86,85,86,85,86,85,86,85,85,85,85,73,74,86,86,85,86,85,86,85,86,85,86,85,86,85,86,85,86,85,86,85,86,85,86,85,86,85,86,85,86,85,86,85,86,85,86,85,86,85,86,85,86,85,86,85,86,
73,74,73,74,73,74,73,74,73,74,73,74,73,74,73,74,73,74,73,74,73,74,73,74,73,74,73,74,73,74,73,74,73,74,73,74,73,74,73,74,73,74,73,74,73,74,73,74,73,74,73,74,73,74,73,74,73,74,73,74,73,74,73,74,
85,86,85,86,85,86,85,86,85,86,85,86,85,86,85,86,85,73,74,86,85,86,85,86,85,86,85,86,85,86,85,86,85,86,85,86,85,86,85,86,85,86,85,86,85,86,85,86,85,86,85,86,85,86,85,86,85,86,85,86,85,86,85,86,
73,74,73,74,73,74,73,74,73,74,73,74,73,74,73,74,73,73,74,73,74,74,73,74,73,74,73,74,73,74,73,74,73,74,73,74,73,74,73,74,73,74,73,74,73,74,73,74,73,74,73,74,73,74,73,74,73,74,73,74,73,74,73,74,
85,86,85,86,85,86,85,86,85,86,85,86,85,86,85,86,85,73,73,73,73,74,85,86,85,86,85,86,85,86,85,86,85,86,85,86,85,86,85,86,85,86,85,86,85,86,85,86,85,86,85,86,85,86,85,86,85,86,85,86,85,86,85,86,
73,74,73,74,73,74,73,74,73,74,73,74,73,74,73,74,73,73,85,85,73,73,74,74,73,74,73,74,73,74,73,74,73,74,73,74,73,74,73,74,73,74,73,74,73,74,73,74,73,74,73,74,73,74,73,74,73,74,73,74,73,74,73,74,
85,86,85,86,85,86,85,86,85,86,85,86,85,86,85,86,85,85,85,86,85,73,73,74,85,86,85,86,85,86,85,86,85,86,85,86,85,86,85,86,85,86,85,86,85,86,85,86,85,86,85,86,85,86,85,86,85,86,85,86,85,86,85,86,
73,74,73,74,73,74,73,74,73,74,73,74,73,74,73,73,74,74,73,74,73,85,73,73,74,74,73,74,73,74,73,74,73,74,73,74,73,74,73,74,73,74,73,74,73,74,73,74,73,74,73,74,73,74,73,74,73,74,73,74,73,74,73,74,
85,86,85,86,85,86,85,86,85,86,85,86,85,86,85,85,86,86,85,86,85,86,85,73,73,73,74,86,85,86,85,86,85,86,85,86,85,86,85,86,85,86,85,86,85,86,85,86,85,86,85,86,85,86,85,86,85,86,85,86,85,86,85,86,
73,74,73,74,73,74,73,74,73,74,73,74,73,74,73,74,73,74,73,74,73,74,73,85,85,85,86,74,73,74,73,74,73,74,73,74,73,74,73,74,73,74,73,74,73,74,73,74,73,74,73,74,73,74,73,74,73,74,73,74,73,74,73,74,
85,86,85,86,85,86,85,86,85,86,85,86,85,86,85,86,85,86,85,86,85,86,85,86,85,85,85,86,85,86,85,86,85,86,85,86,85,86,85,86,85,86,85,86,85,86,85,86,85,86,85,86,85,86,85,86,85,86,85,86,85,86,85,86,
73,74,73,74,73,74,73,74,73,74,73,74,73,74,73,74,73,74,73,74,73,74,73,74,73,74,73,74,73,74,73,74,73,74,73,74,73,74,73,74,73,74,73,74,73,74,73,74,73,74,73,74,73,74,73,74,73,74,73,74,73,74,73,74,
85,86,85,86,85,86,85,86,85,86,85,86,85,86,85,86,85,86,85,86,85,86,85,86,85,86,85,86,85,86,85,86,85,86,85,86,85,86,85,86,85,86,85,86,85,86,85,86,85,86,85,86,85,86,85,86,85,86,85,86,85,86,85,86,
73,74,73,74,73,74,73,74,73,74,73,74,73,74,73,74,73,74,73,74,73,74,73,74,73,74,73,74,73,74,73,74,73,74,73,74,73,74,73,74,73,74,73,74,73,74,73,74,73,74,73,74,73,74,73,74,73,74,73,74,73,74,73,74,
85,86,85,86,85,86,85,86,85,86,85,86,85,86,85,86,85,86,85,86,85,86,85,86,85,86,85,86,85,86,85,86,85,86,85,86,85,86,85,86,85,86,85,86,85,86,85,86,85,86,85,86,85,86,85,86,85,86,85,86,85,86,85,86,
73,74,73,74,73,74,73,74,73,74,73,74,73,74,73,74,73,74,73,74,73,74,73,74,73,74,73,74,73,74,73,74,73,74,73,74,73,74,73,74,73,74,73,74,73,74,73,74,73,74,73,74,73,74,73,74,73,74,73,74,73,74,73,74,
85,86,85,86,85,86,85,86,85,86,85,86,85,86,85,86,85,86,85,86,85,86,85,86,85,86,85,86,85,86,85,86,85,86,85,86,85,86,85,86,85,86,85,86,85,86,85,86,85,86,85,86,85,86,85,86,85,86,85,86,85,86,85,86,
73,74,73,74,73,74,73,74,73,74,73,74,73,74,73,74,73,74,73,74,73,74,73,74,73,74,73,74,73,74,73,74,73,74,73,74,73,74,73,74,73,74,73,74,73,74,73,74,73,74,73,74,73,74,73,74,73,74,73,74,73,74,73,74,
85,86,85,86,85,86,85,86,85,86,85,86,85,86,85,86,85,86,85,86,85,86,85,86,85,86,85,86,85,86,85,86,85,86,85,86,85,86,85,86,85,86,85,86,85,86,85,86,85,86,85,86,85,86,85,86,85,86,85,86,85,86,85,86,
73,74,73,74,73,74,73,74,73,74,73,74,73,74,73,74,73,74,73,74,73,74,73,74,73,74,73,74,73,74,73,74,73,74,73,74,73,74,73,74,73,74,73,74,73,74,73,74,73,74,73,74,73,74,73,73,73,74,73,74,73,74,73,74,
85,86,85,86,85,86,85,86,85,86,85,86,85,86,85,86,85,86,85,86,85,86,85,86,85,86,85,86,85,86,85,86,85,86,85,86,85,86,85,86,85,86,85,86,85,86,85,86,85,86,85,86,85,86,85,86,85,86,85,86,85,86,85,86,
73,74,73,74,73,74,73,74,73,74,73,74,73,74,73,74,73,74,73,74,73,74,73,74,73,74,73,74,73,74,73,74,73,74,73,74,73,74,73,74,73,74,73,74,73,74,73,74,73,74,73,74,73,74,73,74,73,74,73,74,73,74,73,74,
85,86,85,86,85,86,85,86,85,86,85,86,85,86,85,86,85,86,85,86,85,86,85,86,85,86,85,86,85,86,85,86,85,86,85,86,85,86,85,86,85,86,85,86,85,86,85,86,85,86,85,86,85,86,85,86,85,86,85,86,85,86,85,86,
73,74,73,74,73,74,73,74,73,74,73,74,73,74,73,74,73,74,73,74,73,74,73,74,73,74,73,74,73,74,73,74,73,74,73,74,73,74,73,74,73,74,73,74,73,74,73,74,73,74,73,74,73,74,73,74,73,74,73,74,73,74,73,74,
85,86,85,86,85,86,85,86,85,86,85,86,85,86,85,86,85,86,85,86,85,86,85,86,85,86,85,86,85,86,85,86,85,86,85,86,85,86,85,86,85,86,85,86,85,86,85,86,85,86,85,86,85,86,85,86,85,86,85,86,85,86,85,86,
73,74,73,74,73,74,73,74,73,74,73,74,73,74,73,74,73,74,73,74,73,74,73,74,73,74,73,74,73,74,73,74,73,74,73,74,73,74,73,74,73,74,73,74,73,74,73,74,73,74,73,74,73,74,73,74,73,74,73,74,73,74,73,74,
85,86,85,86,85,86,85,86,85,86,85,86,85,86,85,86,85,86,85,86,85,86,85,86,85,86,85,86,85,86,85,86,85,86,85,86,85,86,85,86,85,86,85,86,85,86,85,86,85,86,85,86,85,86,85,86,85,86,85,86,85,86,85,86,
73,74,73,74,73,74,73,74,73,74,73,74,73,74,73,74,73,74,73,74,73,74,73,74,73,74,73,74,73,74,73,74,73,74,73,74,73,74,73,74,73,74,73,74,73,74,73,74,73,74,73,74,73,74,73,74,73,74,73,74,73,74,73,74,
85,86,85,86,85,86,85,86,85,86,85,86,85,86,85,86,85,86,85,86,85,86,85,86,85,86,85,86,85,86,85,86,85,86,85,86,85,86,85,86,85,86,85,86,85,86,85,86,85,86,85,86,85,86,85,86,85,86,85,86,85,86,85,86,
73,74,73,74,73,74,73,74,73,74,73,74,73,74,73,74,73,74,73,74,73,74,73,74,73,74,73,74,73,74,73,74,73,74,73,74,73,74,73,74,73,74,73,74,73,74,73,74,73,74,73,74,73,74,73,74,73,74,73,74,73,74,73,74,
85,86,85,86,85,86,85,86,85,86,85,86,85,86,85,86,85,86,85,86,85,86,85,86,85,86,85,86,85,86,85,86,85,86,85,86,85,86,85,86,85,86,85,86,85,86,85,86,85,86,85,86,85,86,85,86,85,86,85,86,85,86,85,86,
73,74,73,74,73,74,73,74,73,74,73,74,73,74,73,74,73,74,73,74,73,74,73,74,73,74,73,74,73,74,73,74,73,74,73,74,73,74,73,74,73,74,73,74,73,74,73,74,73,74,73,74,73,74,73,74,73,74,73,74,73,74,73,74,
85,86,85,86,85,86,85,86,85,86,85,86,85,86,85,86,85,86,85,86,85,86,85,86,85,86,85,86,85,86,85,86,85,86,85,86,85,86,85,86,85,86,85,86,85,86,85,86,85,86,85,86,85,86,85,86,85,86,85,86,85,86,85,86,
73,74,73,74,73,74,73,74,73,74,73,74,73,74,73,74,73,74,73,74,73,74,73,74,73,74,73,74,73,74,73,74,73,74,73,74,73,74,73,74,73,74,73,74,73,74,73,74,73,74,73,74,73,74,73,74,73,74,73,74,73,74,73,74,
85,86,85,86,85,86,85,86,85,86,85,86,85,86,85,86,85,86,85,86,85,86,85,86,85,86,85,86,85,86,85,86,85,86,85,86,85,86,85,86,85,86,85,86,85,86,85,86,85,86,85,86,85,86,85,86,85,86,85,86,85,86,85,86,
73,74,73,74,73,74,73,74,73,74,73,74,73,74,73,74,73,74,73,74,73,74,73,74,73,74,13,74,73,74,73,74,73,74,73,74,73,74,73,74,73,74,73,74,73,74,73,74,73,74,73,74,73,74,73,74,73,74,73,74,73,74,73,74,
85,86,85,86,85,86,85,86,85,86,85,86,85,86,85,86,85,86,85,86,85,86,85,86,85,86,13,86,85,86,85,86,85,86,85,86,85,86,85,86,85,86,85,86,85,86,85,86,85,86,85,86,85,86,85,86,85,86,85,86,85,86,85,86,
73,74,73,74,73,74,73,74,73,74,73,74,73,74,73,74,73,74,73,74,73,74,73,74,73,74,13,74,73,74,73,74,73,74,73,74,73,74,73,74,73,74,73,74,73,74,73,74,73,74,73,74,73,74,73,74,73,74,73,74,73,74,73,74,
85,86,85,86,85,86,85,86,85,86,85,86,85,86,85,86,85,86,85,86,85,86,85,86,85,73,13,86,85,86,85,86,85,86,85,86,85,86,85,86,85,86,85,86,85,86,85,86,85,86,85,86,85,86,85,86,85,86,85,86,85,86,85,86,
73,74,73,74,73,74,73,74,73,74,73,74,73,74,73,74,73,74,73,74,73,74,73,74,73,73,13,73,74,74,73,74,73,74,73,74,73,74,73,74,73,74,73,74,73,74,73,74,73,74,73,74,73,74,73,74,73,74,73,74,73,74,73,74,
85,86,85,86,85,86,85,86,85,86,85,86,85,86,85,86,85,86,85,86,85,86,85,86,85,73,85,85,86,86,85,86,85,86,85,86,85,86,85,86,85,86,85,86,85,86,85,86,85,86,85,86,85,86,85,86,85,86,85,86,85,86,85,86
</data>
 </layer>
 <layer id="2" name="areia" width="64" height="64">
  <data encoding="csv">
0,0,0,0,0,0,0,0,0,0,0,0,0,0,0,0,0,0,0,0,0,0,0,0,0,0,0,0,0,82,83,84,84,84,82,83,84,84,84,82,82,83,84,96,96,84,84,84,84,84,84,84,82,82,83,84,84,84,83,84,84,84,96,96,
0,0,0,0,0,0,0,0,0,0,0,0,0,0,0,0,0,0,0,0,0,0,0,0,0,0,0,0,0,82,82,82,83,84,84,84,84,96,96,84,84,84,84,95,96,84,96,96,96,96,96,96,84,84,84,84,96,96,84,84,96,96,95,96,
0,0,0,0,0,0,0,0,0,0,0,0,0,0,0,0,0,0,0,0,0,0,0,0,0,0,0,0,0,94,94,82,82,83,84,96,84,82,82,83,84,96,96,84,96,96,84,82,82,83,84,96,96,96,96,96,82,82,82,83,84,94,95,96,
0,0,0,0,0,0,0,0,0,0,0,0,0,0,0,0,0,0,0,0,0,0,0,0,0,0,0,0,0,0,0,94,82,82,82,83,84,94,82,82,82,83,84,84,82,82,83,84,82,82,82,82,82,82,82,82,94,94,82,82,82,83,84,96,
0,0,0,0,0,0,0,0,0,0,0,0,0,0,0,0,0,0,0,0,0,0,0,0,0,0,0,0,0,0,0,0,94,94,82,82,83,84,94,94,94,95,96,96,84,82,82,82,83,84,94,94,94,94,82,83,84,84,94,94,82,83,84,96,
0,0,0,0,0,0,0,0,0,0,0,0,0,0,0,0,0,0,0,0,0,0,0,0,0,0,0,0,0,0,0,0,0,0,94,82,83,84,84,84,84,84,84,84,96,94,94,94,95,96,84,84,83,84,84,84,84,96,82,83,84,82,82,83,
0,0,0,0,0,0,0,0,0,0,0,0,0,0,0,0,0,0,0,0,0,0,0,0,0,0,0,0,0,0,0,0,0,0,0,94,95,96,96,96,96,96,84,84,84,83,84,84,84,83,84,96,84,84,96,96,96,82,82,83,84,94,82,83,
0,0,0,0,0,0,0,0,0,0,0,0,0,0,0,0,0,0,0,0,0,0,0,0,0,0,0,0,0,0,0,0,0,0,0,0,0,94,95,94,95,96,96,96,96,84,84,96,82,83,84,82,82,83,84,82,82,94,82,83,84,84,83,84,
0,0,0,0,0,0,0,0,0,0,0,0,0,0,0,0,0,0,0,0,0,0,0,0,0,0,0,0,0,0,0,0,0,0,0,0,0,0,0,0,0,0,94,95,96,82,83,84,84,84,84,83,84,84,82,94,94,82,83,84,84,96,84,84,
0,0,0,0,0,0,0,0,0,0,0,0,0,0,0,0,0,0,0,0,0,0,0,0,0,0,0,0,0,0,0,0,0,0,0,0,0,0,0,0,0,0,0,0,0,94,95,82,83,84,84,82,83,84,84,84,84,82,82,82,83,84,96,96,
0,0,0,0,0,0,0,0,0,0,0,0,0,0,0,0,0,0,0,0,0,0,0,0,0,0,0,0,0,0,0,0,0,0,0,0,0,0,0,0,0,0,0,0,0,0,0,94,95,96,96,84,82,83,84,96,96,84,84,84,82,82,83,84,
0,0,0,0,0,0,0,0,0,0,0,0,0,0,0,0,0,0,0,0,0,0,0,0,0,0,0,0,0,0,0,0,0,0,0,0,0,0,0,0,0,0,0,0,0,0,0,0,94,95,96,96,84,84,84,84,96,96,96,96,84,84,84,84,
0,0,0,0,0,0,0,0,0,0,0,0,0,0,0,0,0,0,0,0,0,0,0,0,0,0,0,0,0,0,0,0,0,0,0,0,0,0,0,0,0,0,0,0,0,0,0,0,0,94,95,96,96,96,96,83,84,94,95,96,96,82,83,84,
0,0,0,0,0,0,0,0,0,0,0,0,0,0,0,0,0,0,0,0,0,0,0,0,0,0,0,0,0,0,0,0,0,0,0,0,0,0,0,0,0,0,0,0,0,0,0,0,0,0,0,0,0,94,94,82,82,82,82,83,84,82,83,84,
0,0,0,0,0,0,0,0,0,0,0,0,0,0,0,0,0,0,0,0,0,0,0,0,0,0,0,0,0,0,0,0,0,0,0,0,0,0,0,0,0,0,0,0,0,0,0,0,0,0,0,0,0,0,0,94,94,82,83,84,84,84,84,84,
0,0,0,0,0,0,0,0,0,0,0,0,0,0,0,0,0,0,0,0,0,0,0,0,0,0,0,0,0,0,0,0,0,0,0,0,0,0,0,0,0,0,0,0,0,0,0,0,0,0,0,0,0,0,0,0,82,83,84,84,96,84,96,96,
0,0,0,0,0,0,0,0,0,0,0,0,0,0,0,0,0,0,0,0,0,0,0,0,0,0,0,0,0,0,0,0,0,0,0,0,0,0,0,0,0,0,0,0,0,0,0,0,0,0,0,0,0,0,0,0,94,95,96,96,96,96,94,95,
0,0,0,0,0,0,0,0,0,0,0,0,0,0,0,0,0,0,0,0,0,0,0,0,0,0,0,0,0,0,0,0,0,0,0,0,0,0,0,0,0,0,0,0,0,0,0,0,0,0,0,0,0,0,0,0,0,82,94,95,96,84,94,95,
0,0,0,0,0,0,0,0,0,0,0,0,0,0,0,0,0,0,0,0,0,0,0,0,0,0,0,0,0,0,0,0,0,0,0,0,0,0,0,0,0,0,0,0,0,0,0,0,0,0,0,0,0,0,0,0,0,94,94,95,96,96,84,84,
0,0,0,0,0,0,0,0,0,0,0,0,0,0,0,0,0,0,0,0,0,0,0,0,0,0,0,0,0,0,0,0,0,0,0,0,0,0,0,0,0,0,0,0,0,0,0,0,0,0,0,0,0,0,0,0,0,0,0,94,95,96,96,84,
0,0,0,0,0,0,0,0,0,0,0,0,0,0,0,0,0,0,0,0,0,0,0,0,0,0,0,0,0,0,0,0,0,0,0,0,0,0,0,0,0,0,0,0,0,0,0,0,0,0,0,0,0,0,0,0,0,0,0,0,94,95,96,96,
0,0,0,0,0,0,0,0,0,0,0,0,0,0,0,0,0,0,0,0,0,0,0,0,0,0,0,0,0,0,0,0,0,0,0,0,0,0,0,0,0,0,0,0,0,0,0,0,0,0,0,0,0,0,0,0,0,0,0,0,0,0,0,0,
0,0,0,0,0,0,0,0,0,0,0,0,0,0,0,0,0,0,0,0,0,0,0,0,0,0,0,0,0,0,0,0,0,0,0,0,0,0,0,0,0,0,0,0,0,0,0,0,0,0,0,0,0,0,0,0,0,0,0,0,0,0,0,0,
0,0,0,0,0,0,0,0,0,0,0,0,0,0,0,0,0,0,0,0,0,0,0,0,0,0,0,0,0,0,0,0,0,0,0,0,0,0,0,0,0,0,0,0,0,0,0,0,0,0,0,0,0,0,0,0,0,0,0,0,0,0,0,0,
0,0,0,0,0,0,0,0,0,0,0,0,0,0,0,0,0,0,0,0,0,0,0,0,0,0,0,0,0,0,0,0,0,0,0,0,0,0,0,0,0,0,0,0,0,0,0,0,0,0,0,0,0,0,0,0,0,0,0,0,0,0,0,0,
0,0,0,0,0,0,0,0,0,0,0,0,0,0,0,0,0,0,0,0,0,0,0,0,0,0,0,0,0,0,0,0,0,0,0,0,0,0,0,0,0,0,0,0,0,0,0,0,0,0,0,0,0,0,0,0,0,0,0,0,0,0,0,0,
0,0,0,0,0,0,0,0,0,0,0,0,0,0,0,2206,2207,2208,2209,2210,2211,0,0,0,0,0,0,0,0,0,0,0,0,0,0,0,0,0,0,0,0,0,0,0,0,0,0,0,0,0,0,0,0,0,0,0,0,0,0,0,0,0,0,0,
0,0,0,0,0,0,0,0,0,0,0,0,0,0,0,2231,2232,2233,2234,2235,2236,0,0,0,0,0,0,0,0,0,0,0,0,0,0,0,0,0,0,0,0,0,0,0,0,0,0,0,0,0,0,0,0,0,0,0,0,0,0,0,0,0,0,0,
0,0,0,0,0,0,0,0,0,0,0,0,0,0,0,2256,2257,2258,2259,2260,2261,0,0,0,0,0,0,0,0,0,0,0,0,0,0,0,0,0,0,0,0,0,0,0,0,0,0,0,0,0,0,0,0,0,0,0,0,0,0,0,0,0,0,0,
0,0,0,0,0,0,0,0,0,0,0,0,0,0,0,2281,2282,2283,2284,2285,2286,0,0,0,0,0,0,0,0,0,0,0,0,0,0,0,0,0,0,0,0,0,0,0,0,0,0,0,0,0,0,0,0,0,0,0,0,0,0,0,0,0,0,0,
0,0,0,0,0,0,0,0,0,0,0,0,0,0,0,2306,2307,2308,2309,2310,2311,0,0,0,0,0,0,0,0,0,0,0,0,0,0,0,0,0,0,0,0,0,0,0,0,0,0,0,0,0,0,0,0,0,0,0,0,0,0,0,0,0,0,0,
0,0,0,0,0,0,0,0,0,0,0,0,0,0,0,0,0,0,0,0,0,0,0,0,0,0,0,0,0,0,0,0,0,0,0,0,0,0,0,0,0,0,0,0,0,0,0,0,0,0,0,0,0,0,0,0,0,0,0,0,0,0,0,0,
0,0,0,0,0,0,0,0,0,0,0,0,0,0,0,158,158,158,158,158,158,158,158,158,158,158,158,158,158,158,158,0,0,0,0,0,0,0,0,0,0,0,0,0,0,0,0,0,0,0,0,0,0,0,0,0,0,0,0,0,0,0,0,0,
0,0,0,187,188,188,0,0,0,0,0,0,0,0,0,158,158,158,158,158,158,158,158,158,158,158,158,158,158,158,158,0,0,0,0,0,0,0,0,0,0,0,0,0,0,0,0,0,0,0,0,0,0,0,0,0,0,0,0,0,0,0,0,0,
0,0,0,199,200,188,0,0,0,0,0,0,0,0,0,158,158,158,158,158,158,158,158,158,158,158,181,181,181,181,181,0,0,0,0,0,0,0,0,0,0,0,0,0,0,0,0,0,0,0,0,0,0,0,0,0,0,0,0,0,0,0,0,0,
0,0,0,199,200,200,0,0,0,0,0,0,0,0,0,158,158,158,158,158,158,158,158,158,158,158,181,181,193,193,193,0,0,0,0,0,0,0,0,0,0,0,0,0,0,0,0,0,0,0,0,0,0,0,0,0,0,0,0,0,0,0,0,0,
0,0,0,199,200,200,188,0,0,0,0,0,0,0,0,0,0,0,0,0,0,0,0,0,0,0,193,193,193,193,193,0,0,0,0,0,0,0,0,0,0,0,0,0,0,0,0,0,0,0,0,0,0,0,0,0,0,0,0,0,0,0,0,0,
0,0,0,187,199,200,188,0,0,0,0,0,0,0,0,0,0,0,0,0,0,0,0,0,0,0,181,181,181,181,181,0,0,0,0,0,0,0,0,0,0,0,0,0,0,0,0,0,0,0,0,0,0,0,0,0,0,0,0,0,0,0,0,0,
0,0,0,199,199,200,188,188,188,0,0,0,0,0,0,0,0,0,0,0,0,0,0,0,0,0,193,193,193,193,193,0,0,0,0,0,0,0,0,0,0,0,0,0,0,0,0,0,0,0,0,0,0,0,0,0,0,0,0,0,0,0,0,0,
0,0,0,199,200,187,188,188,200,0,0,0,0,0,0,0,0,0,0,0,0,0,0,0,0,0,181,181,181,181,181,0,0,0,0,0,0,0,0,0,0,0,0,0,0,0,0,0,0,0,0,0,0,0,0,0,0,0,0,0,0,0,0,0,
0,0,0,199,187,199,200,200,200,0,0,0,0,0,0,0,0,0,0,0,0,0,0,0,0,0,181,193,193,181,193,0,0,0,0,0,0,0,0,0,0,0,0,0,0,0,0,0,0,0,0,0,0,0,0,0,0,0,0,0,0,0,0,0,
0,0,0,199,199,187,188,199,200,0,0,0,0,0,0,0,0,0,0,0,0,0,0,0,0,0,181,181,193,181,193,0,0,0,0,0,0,0,0,0,0,0,0,0,0,0,0,0,0,0,0,0,0,0,0,0,0,0,0,0,0,0,0,0,
0,0,0,199,200,187,187,199,200,0,0,0,0,0,0,0,0,0,0,0,0,0,0,0,0,0,181,193,193,193,193,0,0,0,0,0,0,0,0,0,0,0,0,0,0,0,0,0,0,0,0,0,0,0,0,0,0,0,0,0,0,0,0,0,
0,0,0,199,200,187,188,199,200,0,0,0,0,0,0,0,0,0,0,0,0,0,0,0,0,0,181,193,193,181,193,0,0,0,0,0,0,0,0,0,0,0,0,0,0,0,0,0,0,0,0,0,0,0,0,0,0,0,0,0,0,0,0,0,
0,0,0,199,200,187,187,188,0,0,0,0,0,0,0,0,0,0,0,0,0,0,0,0,0,0,181,193,193,193,193,0,0,0,0,0,0,0,0,0,0,0,0,0,0,0,0,0,0,0,0,0,0,0,0,0,0,0,0,0,0,0,0,0,
0,0,0,199,199,199,199,200,0,0,0,0,0,0,0,0,0,0,0,0,0,0,0,0,0,0,181,193,193,181,181,0,0,0,0,0,0,0,0,0,0,0,0,0,0,0,0,0,0,0,0,0,0,0,0,0,0,0,0,0,0,0,0,0,
0,0,0,199,199,199,200,0,0,0,0,0,0,0,0,0,0,0,0,0,0,0,0,0,0,0,181,193,193,181,193,0,0,0,0,0,0,0,0,0,0,0,0,0,0,0,0,0,0,0,0,0,0,0,0,0,0,0,0,0,0,0,0,0,
0,0,0,199,187,187,188,0,0,0,0,0,0,0,0,0,0,0,0,0,0,0,0,0,0,0,181,193,193,193,193,0,0,0,0,0,0,0,0,0,0,0,0,0,0,0,0,0,0,0,0,0,0,0,0,0,0,0,0,0,0,0,0,0,
0,0,0,199,199,187,188,0,0,0,0,0,0,0,0,0,0,0,0,0,0,0,0,0,0,0,193,193,193,181,193,0,0,0,0,0,0,0,0,0,0,0,0,0,0,0,0,0,0,0,0,0,0,0,0,0,0,0,0,0,0,0,0,0,
0,0,0,187,199,187,188,0,0,0,0,0,0,0,0,0,0,0,0,0,0,0,0,0,0,0,181,193,193,193,193,0,0,0,0,0,0,0,0,0,0,0,0,0,0,0,0,0,0,0,0,0,0,0,0,0,0,0,0,0,0,0,0,0,
0,0,0,199,199,187,188,0,0,0,0,0,0,0,0,0,0,0,0,0,0,0,0,0,0,0,181,193,193,193,193,0,0,0,0,0,0,0,0,0,0,0,0,0,0,0,0,0,0,0,0,0,0,0,0,0,0,0,0,0,0,0,0,0,
0,0,0,199,200,199,200,0,0,0,0,0,0,0,0,0,0,0,0,0,0,0,0,0,0,0,181,181,193,181,193,0,0,0,0,0,0,0,0,0,0,0,0,0,0,0,0,0,0,0,0,0,0,0,0,0,0,0,0,0,0,0,0,0,
0,0,0,187,199,199,200,0,0,0,0,0,0,0,0,0,0,0,0,0,0,0,0,0,0,0,193,181,193,193,193,0,0,0,0,0,0,0,0,0,0,0,0,0,0,0,0,0,0,0,0,0,0,0,0,0,0,0,0,0,0,0,0,0,
0,0,0,199,199,200,188,0,0,0,0,0,0,0,0,0,0,0,0,0,0,0,0,0,0,0,193,181,193,193,193,0,0,0,0,0,0,0,0,0,0,0,0,0,0,0,0,0,0,0,0,0,0,0,0,0,0,0,0,0,0,0,0,0,
0,0,0,199,200,200,200,0,0,0,0,0,0,0,0,0,0,0,0,0,0,0,0,0,0,0,193,181,193,193,193,0,0,0,0,0,0,0,0,0,0,0,0,0,0,0,0,0,0,0,0,0,0,0,0,0,0,0,0,0,0,0,0,0,
0,0,0,187,187,199,200,0,0,0,0,0,0,0,0,0,0,0,0,0,0,0,0,0,0,0,193,193,193,181,193,0,0,0,0,0,0,0,0,0,0,0,0,0,0,0,0,0,0,0,0,0,0,0,0,0,0,0,0,0,0,0,0,0,
0,0,0,199,199,199,200,0,0,0,0,0,0,0,0,0,0,0,0,0,0,0,0,0,0,0,193,181,193,181,193,0,0,0,0,0,0,0,0,0,0,0,0,0,0,0,0,0,0,0,0,0,0,0,0,0,0,0,0,0,0,0,0,0,
0,0,0,199,200,199,200,0,0,0,0,0,0,0,0,0,0,0,0,0,0,0,0,0,0,0,193,181,193,193,193,0,0,0,0,0,0,0,0,0,0,0,0,0,0,0,0,0,0,0,0,0,0,0,0,0,0,0,0,0,0,0,0,0,
0,0,0,187,199,200,200,0,0,0,0,0,0,0,0,0,0,0,0,0,0,0,0,0,0,0,193,193,193,181,193,0,0,0,0,0,0,0,0,0,0,0,0,0,0,0,0,0,0,0,0,0,0,0,0,0,0,0,0,0,0,0,0,0,
0,0,0,199,199,199,200,0,0,0,0,0,0,0,0,0,0,0,0,0,0,0,0,0,0,0,181,181,193,193,193,0,0,0,0,0,0,0,0,0,0,0,0,0,0,0,0,0,0,0,0,0,0,0,0,0,0,0,0,0,0,0,0,0,
0,0,0,199,200,188,187,188,0,0,0,0,0,0,0,0,0,0,0,0,0,0,0,0,0,0,193,181,193,193,193,0,0,0,0,0,0,0,0,0,0,0,0,0,0,0,0,0,0,0,0,0,0,0,0,0,0,0,0,0,0,0,0,0,
0,0,0,199,200,200,188,188,0,0,0,0,0,0,0,0,0,0,0,0,0,0,0,0,0,0,193,193,181,193,193,0,0,0,0,0,0,0,0,0,0,0,0,0,0,0,0,0,0,0,0,0,0,0,0,0,0,0,0,0,0,0,0,0,
0,0,0,187,199,200,200,200,0,0,0,0,0,0,0,0,0,0,0,0,0,0,0,0,0,0,181,193,193,193,193,0,0,0,0,0,0,0,0,0,0,0,0,0,0,0,0,0,0,0,0,0,0,0,0,0,0,0,0,0,0,0,0,0,
0,0,0,199,199,199,199,200,0,0,0,0,0,0,0,0,0,0,0,0,0,0,0,0,0,0,193,193,193,193,193,0,0,0,0,0,0,0,0,0,0,0,0,0,0,0,0,0,0,0,0,0,0,0,0,0,0,0,0,0,0,0,0,0
</data>
 </layer>
 <layer id="3" name="Camada de Blocos 3" width="64" height="64">
  <data encoding="csv">
0,0,0,0,0,0,0,0,0,0,0,0,0,0,0,0,0,0,0,0,0,0,0,0,0,0,0,0,24,0,0,0,0,0,0,0,0,0,0,0,0,0,0,912,913,0,0,0,0,0,0,0,0,0,0,0,782,783,784,785,0,0,0,0,
0,0,0,0,0,0,0,0,0,0,0,0,0,0,0,0,0,0,0,0,0,0,0,0,0,0,0,0,24,0,0,0,912,913,0,0,686,687,688,689,0,0,0,935,936,0,0,0,0,0,0,0,776,777,778,0,805,806,807,808,0,0,0,0,
0,0,0,0,0,0,0,0,0,0,0,0,0,0,0,0,0,0,0,0,0,0,0,0,0,0,0,0,24,0,0,0,935,936,0,0,709,710,711,712,0,0,0,0,0,0,0,0,0,0,0,0,799,800,801,0,828,829,830,831,0,0,0,0,
0,0,0,0,0,0,0,0,0,0,0,0,0,0,0,0,0,0,0,0,0,0,0,0,0,0,0,0,70,11,11,12,0,0,0,0,732,733,734,735,0,0,0,0,0,0,0,0,0,0,0,0,822,823,824,0,851,852,853,854,0,0,0,0,
0,0,0,0,0,0,0,0,0,0,0,0,0,0,0,0,0,0,0,0,0,0,0,0,0,0,0,0,0,0,0,58,0,0,0,0,755,756,757,758,0,0,0,0,0,0,0,0,0,0,0,0,845,846,847,0,0,0,0,0,0,0,0,0,
0,0,0,0,0,0,0,0,0,0,0,0,0,0,0,0,0,0,0,0,0,0,0,0,0,0,0,0,0,0,0,70,11,11,12,0,0,0,0,0,0,0,0,0,0,0,0,912,913,0,0,0,868,869,870,0,0,0,0,0,912,913,0,0,
0,0,0,0,0,0,0,0,0,0,0,0,0,0,0,0,0,0,0,0,0,0,0,0,0,0,0,0,0,0,0,0,0,0,70,95,95,0,0,0,0,0,0,0,0,0,0,935,936,0,0,0,0,0,0,0,0,0,0,0,935,936,0,0,
0,0,0,0,0,0,0,0,0,0,0,0,0,0,0,0,0,0,0,0,0,0,0,0,0,0,0,0,0,0,0,0,0,0,0,11,11,12,59,59,59,59,0,0,0,0,0,0,0,0,0,0,0,0,0,0,0,0,0,0,0,0,0,0,
0,0,0,0,0,0,0,0,0,0,0,0,0,0,0,0,0,0,0,0,0,0,0,0,0,0,0,0,0,0,0,0,0,0,0,0,0,70,11,11,11,11,12,0,0,0,0,0,0,0,0,0,0,0,0,0,0,0,0,0,0,0,0,0,
0,0,0,0,0,0,0,0,0,0,0,0,0,0,0,0,0,0,0,0,0,0,0,0,0,0,0,0,0,0,0,0,0,0,0,0,0,0,0,0,0,0,70,11,11,0,0,0,0,0,0,0,0,0,0,0,0,0,0,0,0,0,0,0,
0,0,0,0,0,0,0,0,0,0,0,0,0,0,0,0,0,0,0,0,0,0,0,0,0,0,0,0,0,0,0,0,0,0,0,0,0,0,0,0,0,0,0,0,0,0,0,0,0,0,0,0,0,0,0,0,0,0,776,777,778,0,0,0,
0,0,0,0,0,0,0,0,0,0,0,0,0,0,0,0,0,0,0,0,0,0,0,0,0,0,0,0,0,0,0,0,0,0,0,0,0,0,0,0,0,0,0,0,0,0,0,0,0,0,0,0,0,0,0,0,0,0,799,800,801,0,0,0,
0,0,0,0,0,0,0,0,0,0,0,0,0,0,0,0,0,0,0,0,0,0,0,0,0,0,0,0,0,0,0,0,0,0,0,0,0,0,0,0,0,0,0,0,0,0,0,0,0,0,0,0,0,0,0,0,0,0,822,823,824,0,0,0,
0,0,0,0,0,0,0,0,0,0,0,0,0,0,0,0,0,0,0,0,0,0,0,0,0,0,0,0,0,0,0,0,0,0,0,0,0,0,0,0,0,0,0,0,0,0,0,0,0,0,0,0,0,0,0,0,0,0,845,846,847,0,0,0,
0,0,0,0,0,0,0,0,0,0,0,0,0,0,0,0,0,0,0,0,0,0,0,0,0,0,0,0,0,0,0,0,0,0,0,0,0,0,0,0,0,0,0,0,0,0,0,0,0,0,0,0,0,0,0,0,0,0,868,869,870,0,0,0,
0,0,0,0,0,0,0,0,0,0,0,0,0,0,0,0,0,0,0,0,0,0,0,0,0,0,0,0,0,0,0,0,0,0,0,0,0,0,0,0,0,0,0,0,0,0,0,0,0,0,0,0,0,0,0,0,0,0,0,0,0,0,0,0,
0,0,0,0,0,0,0,0,0,0,0,0,0,0,0,0,0,0,0,0,0,0,0,0,0,0,0,0,0,0,0,0,0,0,0,0,0,0,0,0,0,0,0,0,0,0,0,0,0,0,0,0,0,0,0,0,0,0,0,0,0,0,0,0,
0,0,0,0,0,0,0,0,0,0,0,0,0,0,0,0,0,0,0,0,0,0,0,0,0,0,0,0,0,0,0,0,0,0,0,0,0,0,0,0,0,0,0,0,0,0,0,0,0,0,0,0,0,0,0,0,0,0,0,0,0,0,0,0,
0,0,0,0,0,0,0,0,0,0,0,0,0,0,0,0,0,0,0,0,0,0,0,0,0,0,0,0,0,0,0,0,0,0,0,0,0,0,0,0,0,0,0,0,0,0,0,0,0,0,0,0,0,0,0,0,0,0,0,0,0,0,0,0,
0,0,0,0,0,0,0,0,0,0,0,0,0,0,0,0,0,0,0,0,0,0,0,0,0,0,0,0,0,0,0,0,0,0,0,0,0,0,0,0,0,0,0,0,0,0,0,0,0,0,0,0,0,0,0,0,0,0,0,0,0,0,0,0,
0,0,0,0,0,0,0,0,0,0,0,0,74,74,74,0,0,0,0,0,0,0,0,0,0,0,0,0,0,0,0,0,0,0,0,0,0,0,0,0,0,0,0,0,0,0,0,0,0,0,0,0,0,0,0,0,0,0,0,0,0,0,0,0,
0,0,0,0,0,0,0,0,0,0,0,0,2368,2369,2369,2369,2369,2369,2369,2369,2369,2369,2369,2369,2369,2370,0,0,0,0,0,0,0,0,0,0,0,0,0,0,0,0,0,0,0,0,0,0,0,0,0,0,0,0,0,0,0,0,0,0,0,0,0,0,
0,0,0,0,0,0,0,0,0,0,0,0,2393,0,0,0,0,0,0,2484,0,0,0,0,0,2395,0,0,0,0,0,0,0,0,0,0,0,0,0,0,0,0,0,0,0,0,0,0,0,0,0,0,0,0,0,0,0,0,0,0,0,0,0,0,
0,0,0,0,0,0,0,0,0,0,0,0,2393,0,2484,0,0,0,0,0,0,0,2484,0,0,2395,0,0,0,0,0,0,0,0,0,0,0,0,0,0,0,0,0,0,0,0,0,0,0,0,0,0,0,0,0,0,0,0,0,0,0,0,0,0,
1506,0,0,0,0,0,0,0,0,0,0,0,2393,0,0,0,0,2484,0,0,0,0,0,0,0,2395,0,0,0,0,0,0,0,0,0,0,0,0,0,0,0,0,0,0,0,0,0,0,0,0,0,0,0,0,0,0,0,0,0,0,0,0,0,0,
1506,1506,1506,0,0,0,0,0,0,0,0,0,2393,0,0,0,0,0,0,0,0,0,0,0,2484,2395,0,0,0,0,0,0,0,0,0,0,0,0,0,0,0,0,0,0,0,0,0,0,0,0,0,0,0,0,0,0,0,0,0,0,0,0,0,0,
1506,1506,1506,0,0,0,0,0,0,0,0,0,2393,2484,0,0,0,0,0,0,0,2484,0,0,0,2395,0,0,0,0,0,0,0,0,0,0,0,0,0,0,0,0,0,0,0,0,0,0,0,0,0,0,0,0,0,0,0,0,0,0,0,0,0,0,
1506,1506,1506,0,0,0,0,0,0,0,0,0,2393,0,0,0,0,0,0,0,0,0,0,0,0,2395,0,0,0,0,0,0,0,0,0,0,0,0,0,0,0,0,0,0,0,0,0,0,0,0,0,0,0,0,0,0,0,0,0,0,0,0,0,0,
1506,1506,1506,1506,0,0,0,0,0,0,0,0,2393,0,0,0,0,0,0,0,0,0,0,0,0,2395,0,0,0,0,0,0,0,0,0,0,0,0,0,0,0,0,0,0,0,0,0,0,0,0,0,0,0,0,0,0,0,0,0,0,0,0,0,0,
1506,1506,1506,1506,0,0,0,0,0,0,0,0,2393,0,0,0,0,0,0,0,0,2366,0,0,0,2395,0,0,0,0,0,0,0,0,0,0,0,0,0,0,0,0,0,0,0,0,0,0,0,0,0,0,0,0,0,0,0,0,0,0,0,0,0,0,
1506,1506,1506,1506,0,0,0,0,0,0,0,0,2418,2369,2369,0,0,0,0,0,0,2391,0,0,0,2395,0,0,0,0,0,0,0,0,0,0,0,0,0,0,0,0,0,0,0,0,0,0,0,0,0,0,0,0,0,0,0,0,0,0,0,0,0,0,
1506,1506,1506,1506,1506,0,0,0,0,0,0,0,0,0,0,0,0,0,0,0,0,0,0,0,0,0,0,0,0,0,0,0,0,0,0,0,0,0,0,0,0,0,0,0,0,0,0,0,0,0,0,0,0,0,0,0,0,0,0,0,0,0,0,0,
1506,1506,1506,1506,1506,0,0,0,0,0,0,0,0,0,0,5,5,5,5,5,5,5,5,5,5,5,5,5,5,5,6,0,0,0,0,0,0,0,0,0,0,0,0,0,0,0,0,0,0,0,0,0,0,0,0,0,0,0,0,0,0,0,0,0,
1521,1521,1521,1447,1506,0,0,0,0,0,0,0,0,0,0,0,0,0,0,0,0,0,0,0,0,0,0,0,0,0,18,0,0,0,0,0,0,0,0,0,0,0,0,0,0,0,0,0,0,0,0,0,0,0,0,0,0,0,0,0,0,0,0,0,
1551,1551,1551,1505,0,0,0,0,0,0,0,0,0,0,0,0,0,0,0,0,0,0,0,0,0,0,0,0,0,0,18,0,0,0,0,0,0,0,0,0,0,0,0,0,0,0,0,0,0,0,0,0,0,0,0,0,0,0,0,0,0,0,0,0,
1551,1551,1551,1505,0,0,0,0,0,0,0,0,0,0,0,29,29,29,29,29,29,29,29,29,29,29,39,0,0,0,18,0,0,0,0,0,0,0,0,0,0,0,0,0,0,0,0,0,0,0,0,0,0,0,0,0,0,0,0,0,0,0,0,0,
1551,1551,1551,1505,0,0,0,0,0,0,0,0,0,0,0,0,0,0,0,0,0,0,0,0,50,0,16,0,0,0,18,0,0,0,0,0,0,0,0,0,0,0,0,0,0,0,0,0,0,0,0,0,0,0,0,0,0,0,0,0,0,0,0,0,
1551,1551,1551,1505,0,0,0,0,0,0,0,0,0,0,0,0,0,0,0,0,0,0,0,0,50,0,16,0,0,0,18,0,0,0,0,0,0,0,0,0,0,0,0,0,0,0,0,0,0,0,0,0,0,0,0,0,0,0,0,0,0,0,0,0,
1551,1551,1551,1505,0,0,0,0,0,0,0,0,0,0,0,0,0,0,0,0,0,0,0,0,0,0,16,0,0,0,18,0,0,0,0,0,0,0,0,0,0,0,0,0,0,0,0,0,0,0,0,0,0,0,0,0,0,0,0,0,0,0,0,0,
1551,1551,1551,1505,0,0,0,0,0,0,0,0,0,0,0,0,0,0,0,0,0,0,0,0,0,0,13,0,0,0,18,0,0,0,0,0,0,0,0,0,0,0,0,0,0,0,0,0,0,0,0,0,0,0,0,0,0,0,0,0,0,0,0,0,
1551,1551,1551,1505,0,0,0,0,0,0,0,0,0,0,0,0,0,0,0,0,0,0,0,0,0,0,13,0,0,0,18,0,0,0,0,0,0,0,0,0,0,0,0,0,0,0,0,0,0,0,0,0,0,0,0,0,0,0,0,0,0,0,0,0,
1551,1551,1551,1505,0,0,0,0,0,0,0,0,0,0,0,0,0,0,0,0,0,0,0,0,0,0,13,0,0,0,18,0,0,0,0,0,0,0,0,0,0,0,0,0,0,0,0,0,0,0,0,0,0,0,0,0,0,0,0,0,0,0,0,0,
1551,1551,1551,1505,0,0,0,0,0,0,0,0,0,0,0,0,0,0,0,0,0,0,0,0,0,0,13,0,0,0,18,0,0,0,0,0,0,0,0,0,0,0,0,0,0,0,0,0,0,0,0,0,0,0,0,0,0,0,0,0,0,0,0,0,
1551,1551,1551,1505,0,0,0,0,0,0,0,0,0,0,0,0,0,0,0,0,0,0,0,0,0,0,13,0,0,0,18,0,0,0,0,0,0,0,0,0,0,0,0,0,0,0,0,0,0,0,0,0,0,0,0,0,0,0,0,0,0,0,0,0,
1551,1551,1551,1505,0,0,0,0,0,0,0,0,0,0,0,0,0,0,0,0,0,0,0,0,0,0,13,0,0,0,18,0,0,0,0,0,0,0,0,0,0,0,0,0,0,0,0,0,0,0,0,0,0,0,0,0,0,0,0,0,0,0,0,0,
1551,1551,1551,1505,0,0,0,0,0,0,0,0,770,771,772,0,0,0,770,771,772,0,0,0,0,0,13,0,0,0,158,158,158,158,158,158,158,158,158,158,158,158,158,158,158,158,158,158,158,0,0,0,0,0,0,0,0,0,0,0,0,0,0,0,
1551,1551,1551,1505,1506,0,0,0,0,0,0,0,793,794,795,0,0,0,793,794,795,0,0,0,0,0,13,0,0,158,158,158,158,158,158,158,158,158,158,158,158,158,158,158,158,158,158,158,158,0,0,0,0,0,0,0,0,0,0,0,0,0,0,0,
1551,1551,1551,1505,0,0,0,0,0,0,0,0,816,817,818,0,0,0,816,817,818,0,770,771,772,0,13,0,0,0,158,158,158,158,158,158,158,158,158,158,158,158,158,158,158,158,158,158,158,0,0,0,0,0,0,0,0,0,0,0,0,0,0,0,
1551,1551,1551,1505,0,0,0,0,0,0,0,0,839,840,841,0,0,0,839,840,841,0,793,794,795,0,13,0,0,0,158,158,158,158,158,158,158,158,158,158,158,158,158,158,158,158,158,158,158,0,0,0,0,0,0,0,0,0,0,0,0,0,0,0,
1551,1551,1551,1505,0,0,0,0,0,0,0,0,862,863,864,770,771,772,862,863,864,0,816,817,818,0,13,0,0,0,18,0,0,0,0,0,0,0,0,0,0,0,0,0,0,0,0,0,0,0,0,0,0,0,0,0,0,0,0,0,0,0,0,0,
1551,1551,1551,1505,0,0,0,0,0,0,0,0,0,0,0,793,794,795,0,0,0,0,839,840,841,0,13,0,0,0,18,0,0,0,0,0,0,0,0,0,0,0,0,0,0,0,0,0,0,0,0,0,0,0,0,0,0,0,0,0,0,0,0,0,
1551,1551,1551,1505,0,0,1506,1506,0,0,0,0,0,0,0,816,817,818,0,0,0,0,862,863,864,0,13,0,0,0,18,0,0,0,0,0,0,0,0,0,0,0,0,0,0,0,0,0,0,0,0,0,0,0,0,0,0,0,0,0,0,0,0,0,
1551,1551,1551,1505,0,0,0,1506,0,0,0,0,770,771,772,839,840,841,0,770,771,772,0,0,0,0,13,0,0,0,18,0,0,0,0,0,0,0,0,0,0,0,0,0,0,0,0,0,0,0,0,0,0,0,0,0,0,0,0,0,0,0,0,0,
1551,1551,1551,1505,0,0,0,1506,0,0,0,0,793,794,795,862,863,864,0,793,794,795,0,0,0,0,13,0,0,0,18,0,0,0,0,0,0,0,0,0,0,0,0,0,0,0,0,0,0,0,0,0,0,0,0,0,0,0,0,0,0,0,0,0,
1551,1551,1551,1505,0,0,0,1506,0,0,0,0,816,817,818,0,0,0,0,816,817,818,0,0,0,0,13,0,0,0,18,0,0,0,255,255,255,255,255,0,0,0,0,0,0,0,0,0,0,0,0,0,0,0,0,0,0,0,0,0,0,0,0,0,
1551,1551,1551,1505,0,0,0,1506,0,0,0,0,839,840,841,0,0,0,0,839,840,841,0,770,771,772,13,0,0,0,18,0,0,0,255,255,255,255,255,0,0,0,0,0,0,0,0,0,0,0,0,0,0,0,0,0,0,0,0,0,0,0,0,0,
1551,1551,1551,1505,0,0,1506,1506,0,0,0,0,862,863,864,770,771,772,0,862,863,864,0,793,794,795,13,0,0,0,18,0,0,0,255,255,255,255,255,0,0,0,0,0,0,0,0,0,0,0,0,0,0,0,0,0,0,0,0,0,0,0,0,0,
1551,1551,1551,1505,0,0,1506,1506,0,0,0,0,0,0,0,793,794,795,0,0,0,0,0,816,817,818,13,0,0,0,18,0,0,0,255,255,255,255,255,0,0,0,0,0,0,0,0,0,0,0,0,0,0,0,0,0,0,0,0,0,0,0,0,0,
1551,1551,1551,1505,0,0,1506,1506,0,0,0,770,771,772,0,816,817,818,0,770,771,772,0,839,840,841,13,0,0,0,18,0,0,0,255,255,255,255,255,0,0,0,0,0,0,0,0,0,0,0,0,0,0,0,0,0,0,0,0,0,0,0,0,0,
1551,1551,1551,1505,0,0,1506,1506,0,0,0,793,794,795,0,839,840,841,0,793,794,795,0,862,863,864,13,0,0,0,18,0,0,0,266,267,267,267,268,0,0,0,0,0,0,0,0,0,0,0,0,0,0,0,0,0,0,0,0,0,0,0,0,0,
1551,1551,1551,1505,0,0,1506,1506,0,0,0,816,817,818,0,862,863,864,0,816,817,818,0,0,0,0,13,0,0,0,18,0,0,0,0,0,0,0,0,0,0,0,0,0,0,0,0,0,0,0,0,0,0,0,0,0,0,0,0,0,0,0,0,0,
1551,1551,1551,1505,0,0,0,1506,0,0,0,839,840,841,0,0,0,0,0,839,840,841,0,0,0,0,13,0,0,0,18,0,0,0,0,0,0,0,0,0,0,0,0,0,0,0,0,0,0,0,0,0,0,0,0,0,0,0,0,0,0,0,0,0,
1551,1551,1551,1505,0,0,0,1506,0,0,0,862,863,864,0,0,0,0,0,862,863,864,0,0,0,0,13,0,0,0,18,0,0,0,0,0,0,0,0,0,0,0,0,0,0,0,0,0,0,0,0,0,0,0,0,0,0,0,0,0,0,0,0,0,
1551,1551,1551,1505,0,0,0,1506,0,0,0,0,0,0,0,0,0,0,0,0,0,0,0,0,0,0,13,0,0,0,18,0,0,0,0,0,0,0,0,0,0,0,0,0,0,0,0,0,0,0,0,0,0,0,0,0,0,0,0,0,0,0,0,0
</data>
 </layer>
</map>
